X:2553
T:Cantar de Ronda (CT 146)
R:Ronda
C:Tradicional
S:Música Tradicional Asturiana, (C) Tello & Tito. Asturies, 2001.
S:http://pagina.de/MusTradAst <telloytito@asturies.org>
N:Canción de Ronda, transcrita en Brañas d'Arriba, ayuntamiento de L.leitariegos.
O:Brañas d'Arriba (L.leitariegos)
A:Asturies
Z:Cancioneru de Torner 146
M:3/8
L:1/8
Q:3/8=72
W:N'aquella ventana hay luz
W:y allí se están acostando;
W:allí están los mis amores
W:y yo por aquí penando.
K:Gm
G
|BBB|A2 B|c2 B|BAB|c2 B|A G2-|G2 ^F|
AAG|B2 B|(A3/2B/4A/4)G-|G2 ^F|
GAG|B2 B|(A3/2 B/4A/4)G-|G3||


